report_00007_2020-12-11T15:55:29.892Z/first-cpu-idle/comparison/sorted/2_vs_3.svg

<svg width="640" height="500" xmlns="http://www.w3.org/2000/svg" xmlns:xlink="http://www.w3.org/1999/xlink"><path fill="#fff" d="M0 0h640v500H0z"/><defs><path id="d" stroke-width=".222" stroke="currentColor" d="M-1-1h2v2h-2z"/><path id="b" stroke-width=".222" stroke="currentColor" d="M0-1.33l-1.33 2h2.66z"/><path id="f" stroke-width=".222" stroke="currentColor" d="M0 1.33L1.265.411.782-1.067l-1.564-.009-.483 1.487z"/><use xlink:href="#b" id="c" stroke="currentColor" transform="rotate(180)"/><use xlink:href="#d" id="e" stroke="currentColor" transform="rotate(45)"/><circle id="a" stroke-width=".222" stroke="currentColor" cx="0" cy="0" r="1"/></defs><g fill="none" color="#000" stroke="currentColor"><path stroke="#000" d="M62.2 418.4h9m543.8 0h-9"/><text transform="translate(53.9 422.3)" stroke="none" fill="#000" font-family="Arial" font-size="12" text-anchor="end"><tspan>1950</tspan></text></g><g fill="none" color="#000" stroke="currentColor"><path stroke="#000" d="M62.2 375.2h9m543.8 0h-9"/><text transform="translate(53.9 379.1)" stroke="none" fill="#000" font-family="Arial" font-size="12" text-anchor="end"><tspan>2000</tspan></text></g><g fill="none" color="#000" stroke="currentColor"><path stroke="#000" d="M62.2 332h9m543.8 0h-9"/><text transform="translate(53.9 335.9)" stroke="none" fill="#000" font-family="Arial" font-size="12" text-anchor="end"><tspan>2050</tspan></text></g><g fill="none" color="#000" stroke="currentColor"><path stroke="#000" d="M62.2 288.9h9m543.8 0h-9"/><text transform="translate(53.9 292.8)" stroke="none" fill="#000" font-family="Arial" font-size="12" text-anchor="end"><tspan>2100</tspan></text></g><g fill="none" color="#000" stroke="currentColor"><path stroke="#000" d="M62.2 245.7h9m543.8 0h-9"/><text transform="translate(53.9 249.6)" stroke="none" fill="#000" font-family="Arial" font-size="12" text-anchor="end"><tspan>2150</tspan></text></g><g fill="none" color="#000" stroke="currentColor"><path stroke="#000" d="M62.2 202.6h9m543.8 0h-9"/><text transform="translate(53.9 206.5)" stroke="none" fill="#000" font-family="Arial" font-size="12" text-anchor="end"><tspan>2200</tspan></text></g><g fill="none" color="#000" stroke="currentColor"><path stroke="#000" d="M62.2 159.4h9m543.8 0h-9"/><text transform="translate(53.9 163.3)" stroke="none" fill="#000" font-family="Arial" font-size="12" text-anchor="end"><tspan>2250</tspan></text></g><g fill="none" color="#000" stroke="currentColor"><path stroke="#000" d="M62.2 116.2h9m543.8 0h-9"/><text transform="translate(53.9 120.1)" stroke="none" fill="#000" font-family="Arial" font-size="12" text-anchor="end"><tspan>2300</tspan></text></g><g fill="none" color="#000" stroke="currentColor"><path stroke="#000" d="M62.2 73.1h9m543.8 0h-9"/><text transform="translate(53.9 77)" stroke="none" fill="#000" font-family="Arial" font-size="12" text-anchor="end"><tspan>2350</tspan></text></g><g fill="none" color="#000" stroke="currentColor"><path stroke="#000" d="M62.2 29.9h9m543.8 0h-9"/><text transform="translate(53.9 33.8)" stroke="none" fill="#000" font-family="Arial" font-size="12" text-anchor="end"><tspan>2400</tspan></text></g><g fill="none" color="#000" stroke="currentColor"><path stroke="#000" d="M62.2 428v-9m0-400.9v9"/><text transform="translate(62.2 449.9)" stroke="none" fill="#000" font-family="Arial" font-size="12" text-anchor="middle"><tspan>0</tspan></text></g><g fill="none" color="#000" stroke="currentColor"><path stroke="#000" d="M118 428v-9m0-400.9v9"/><text transform="translate(118 449.9)" stroke="none" fill="#000" font-family="Arial" font-size="12" text-anchor="middle"><tspan>10</tspan></text></g><g fill="none" color="#000" stroke="currentColor"><path stroke="#000" d="M173.9 428v-9m0-400.9v9"/><text transform="translate(173.9 449.9)" stroke="none" fill="#000" font-family="Arial" font-size="12" text-anchor="middle"><tspan>20</tspan></text></g><g fill="none" color="#000" stroke="currentColor"><path stroke="#000" d="M229.7 428v-9m0-400.9v9"/><text transform="translate(229.7 449.9)" stroke="none" fill="#000" font-family="Arial" font-size="12" text-anchor="middle"><tspan>30</tspan></text></g><g fill="none" color="#000" stroke="currentColor"><path stroke="#000" d="M285.6 428v-9m0-400.9v9"/><text transform="translate(285.6 449.9)" stroke="none" fill="#000" font-family="Arial" font-size="12" text-anchor="middle"><tspan>40</tspan></text></g><g fill="none" color="#000" stroke="currentColor"><path stroke="#000" d="M341.4 428v-9m0-400.9v9"/><text transform="translate(341.4 449.9)" stroke="none" fill="#000" font-family="Arial" font-size="12" text-anchor="middle"><tspan>50</tspan></text></g><g fill="none" color="#000" stroke="currentColor"><path stroke="#000" d="M397.2 428v-9m0-400.9v9"/><text transform="translate(397.2 449.9)" stroke="none" fill="#000" font-family="Arial" font-size="12" text-anchor="middle"><tspan>60</tspan></text></g><g fill="none" color="#000" stroke="currentColor"><path stroke="#000" d="M453.1 428v-9m0-400.9v9"/><text transform="translate(453.1 449.9)" stroke="none" fill="#000" font-family="Arial" font-size="12" text-anchor="middle"><tspan>70</tspan></text></g><g fill="none" color="#000" stroke="currentColor"><path stroke="#000" d="M508.9 428v-9m0-400.9v9"/><text transform="translate(508.9 449.9)" stroke="none" fill="#000" font-family="Arial" font-size="12" text-anchor="middle"><tspan>80</tspan></text></g><g fill="none" color="#000" stroke="currentColor"><path stroke="#000" d="M564.7 428v-9m0-400.9v9"/><text transform="translate(564.7 449.9)" stroke="none" fill="#000" font-family="Arial" font-size="12" text-anchor="middle"><tspan>90</tspan></text></g><path stroke="#000" d="M62.2 18.1V428H615V18.1H62.2z" fill="none" color="#000"/><text transform="translate(279.8 467.9)" stroke="none" fill="#000" font-family="Arial" font-size="12" text-anchor="end" color="#000"><tspan>pages+cached</tspan></text><path stroke="#9400D3" d="M288.1 464h42.2M62.2 420.1l5.6-18.5 5.6-1.1 5.6-.6 5.5-.1 5.6-.1 5.6-.1 5.6-.1 5.6-.1 5.6-.1h5.5l5.6-.1 5.6-.2h11.2l5.6-.1 5.5-.1h11.2l5.6-.1h5.6l5.6-.2h5.5l5.6-.1 5.6-.1h11.2l5.6-.1h11.1l5.6-.2h5.6l5.6-.1h11.2l5.5-.2h28l5.5-.3H307.9l5.6-.2 5.6-.3h5.5l5.6-.1H347l5.6-.3h11.1l5.6-.1 5.6-.1h5.6l5.6-.1h5.5l5.6-.1h5.6l5.6-.4h5.6l5.6-.1 5.5-.4 5.6-.1h5.6l5.6-.5h5.6l5.6-.7 5.6-4.4 5.5-121.2 5.6-2.4 5.6-1.9 5.6-.2 5.6-1.2 5.6-60.9 5.5-.3 5.6-.2 5.6-.6 5.6-.2 5.6-.2 5.6-.1 5.5-.8 5.6-.7h5.6l5.6-.5 5.6-.3 5.6-.4h5.5l5.6-.1h5.6l5.6-.3 5.6-.4 5.6-.2 5.5-.3 5.6-.1 5.6-1.9L615 26" fill="none" color="#000"/><text transform="translate(279.8 485.9)" stroke="none" fill="#000" font-family="Arial" font-size="12" text-anchor="end" color="#000"><tspan>pages+cached+nointeractive</tspan></text><path stroke="#009E73" d="M288.1 482h42.2M62.2 403.8l5.6-1.8 5.6-1 5.6-.2 5.5-.5 5.6-.4 5.6-.3 5.6-.1 5.6-.1h5.6l5.5-.1h5.6l5.6-.2 5.6-.2h5.6l5.6-.2h5.5l5.6-.1h5.6l5.6-.1 5.6-.1 5.6-.1h5.5l5.6-.1h5.6l5.6-.1H213l5.5-.2h5.6l5.6-.5 5.6-.1h5.6l5.6-.2 5.6-.2 5.5-.1 5.6-1.9 5.6-127.5 5.6-.4 5.6-.2 5.6-.5 5.5-.6 5.6-.1 5.6-.1 5.6-.1 5.6-.1h5.6l5.5-.2 5.6-.1 5.6-.9 5.6-1.9 5.6-57.4 5.6-1.8h11.1l5.6-.2 5.6-.4 5.6-.5h11.1l5.6-.2h5.6l5.6-.3h11.2l5.5-.1 5.6-.1 5.6-.1h11.2l5.6-.2 5.6-.4h11.1l5.6-.2 5.6-.1 5.6-.1h5.6l5.5-.1h5.6l5.6-.1h5.6l5.6-.1 5.6-.1 5.5-.1h11.2l5.6-.1h5.6l5.6-.2 5.5-.3 5.6-.1 5.6-.1 5.6-.1h5.6l5.6-.1 5.5-.5 5.6-.1 5.6-.2 5.6-.1" fill="none" color="#000"/><text transform="translate(554.4 467.9)" stroke="none" fill="#000" font-family="Arial" font-size="12" text-anchor="end" color="#000"><tspan>score p10=3572</tspan></text><path stroke="#56B4E9" d="M562.7 464h42.2" fill="none" color="#000"/><g><text transform="translate(554.4 485.9)" stroke="none" fill="#000" font-family="Arial" font-size="12" text-anchor="end" color="#000"><tspan>score median=6500</tspan></text><path stroke="#E69F00" d="M562.7 482h42.2" fill="none" color="#000"/></g><g fill="none" color="#000" stroke="currentColor"><path stroke="#000" d="M62.2 18.1V428H615V18.1H62.2z"/></g></svg>

<?xml version="1.0" encoding="utf-8"  standalone="no"?>
<svg 
 width="640" height="500"
 viewBox="0 0 640 500"
 xmlns="http://www.w3.org/2000/svg"
 xmlns:xlink="http://www.w3.org/1999/xlink"
>

<title>Gnuplot</title>
<desc>Produced by GNUPLOT 5.4 patchlevel 0 </desc>

<g id="gnuplot_canvas">

<rect x="0" y="0" width="640" height="500" fill="#ffffff"/>
<defs>

	<circle id='gpDot' r='0.5' stroke-width='0.5' stroke='currentColor'/>
	<path id='gpPt0' stroke-width='0.222' stroke='currentColor' d='M-1,0 h2 M0,-1 v2'/>
	<path id='gpPt1' stroke-width='0.222' stroke='currentColor' d='M-1,-1 L1,1 M1,-1 L-1,1'/>
	<path id='gpPt2' stroke-width='0.222' stroke='currentColor' d='M-1,0 L1,0 M0,-1 L0,1 M-1,-1 L1,1 M-1,1 L1,-1'/>
	<rect id='gpPt3' stroke-width='0.222' stroke='currentColor' x='-1' y='-1' width='2' height='2'/>
	<rect id='gpPt4' stroke-width='0.222' stroke='currentColor' fill='currentColor' x='-1' y='-1' width='2' height='2'/>
	<circle id='gpPt5' stroke-width='0.222' stroke='currentColor' cx='0' cy='0' r='1'/>
	<use xlink:href='#gpPt5' id='gpPt6' fill='currentColor' stroke='none'/>
	<path id='gpPt7' stroke-width='0.222' stroke='currentColor' d='M0,-1.33 L-1.33,0.67 L1.33,0.67 z'/>
	<use xlink:href='#gpPt7' id='gpPt8' fill='currentColor' stroke='none'/>
	<use xlink:href='#gpPt7' id='gpPt9' stroke='currentColor' transform='rotate(180)'/>
	<use xlink:href='#gpPt9' id='gpPt10' fill='currentColor' stroke='none'/>
	<use xlink:href='#gpPt3' id='gpPt11' stroke='currentColor' transform='rotate(45)'/>
	<use xlink:href='#gpPt11' id='gpPt12' fill='currentColor' stroke='none'/>
	<path id='gpPt13' stroke-width='0.222' stroke='currentColor' d='M0,1.330 L1.265,0.411 L0.782,-1.067 L-0.782,-1.076 L-1.265,0.411 z'/>
	<use xlink:href='#gpPt13' id='gpPt14' fill='currentColor' stroke='none'/>
	<filter id='textbox' filterUnits='objectBoundingBox' x='0' y='0' height='1' width='1'>
	  <feFlood flood-color='#FFFFFF' flood-opacity='1' result='bgnd'/>
	  <feComposite in='SourceGraphic' in2='bgnd' operator='atop'/>
	</filter>
	<filter id='greybox' filterUnits='objectBoundingBox' x='0' y='0' height='1' width='1'>
	  <feFlood flood-color='lightgrey' flood-opacity='1' result='grey'/>
	  <feComposite in='SourceGraphic' in2='grey' operator='atop'/>
	</filter>
</defs>
<g fill="none" color="#FFFFFF" stroke="black" stroke-width="1.00" stroke-linecap="butt" stroke-linejoin="miter">
</g>
<g fill="none" color="black" stroke="currentColor" stroke-width="1.00" stroke-linecap="butt" stroke-linejoin="miter">
	<path stroke='black'  d='M62.2,418.4 L71.2,418.4 M615.0,418.4 L606.0,418.4  '/>	<g transform="translate(53.9,422.3)" stroke="none" fill="black" font-family="Arial" font-size="12.00"  text-anchor="end">
		<text><tspan font-family="Arial" > 1950</tspan></text>
	</g>
</g>
<g fill="none" color="black" stroke="currentColor" stroke-width="1.00" stroke-linecap="butt" stroke-linejoin="miter">
	<path stroke='black'  d='M62.2,375.2 L71.2,375.2 M615.0,375.2 L606.0,375.2  '/>	<g transform="translate(53.9,379.1)" stroke="none" fill="black" font-family="Arial" font-size="12.00"  text-anchor="end">
		<text><tspan font-family="Arial" > 2000</tspan></text>
	</g>
</g>
<g fill="none" color="black" stroke="currentColor" stroke-width="1.00" stroke-linecap="butt" stroke-linejoin="miter">
	<path stroke='black'  d='M62.2,332.0 L71.2,332.0 M615.0,332.0 L606.0,332.0  '/>	<g transform="translate(53.9,335.9)" stroke="none" fill="black" font-family="Arial" font-size="12.00"  text-anchor="end">
		<text><tspan font-family="Arial" > 2050</tspan></text>
	</g>
</g>
<g fill="none" color="black" stroke="currentColor" stroke-width="1.00" stroke-linecap="butt" stroke-linejoin="miter">
	<path stroke='black'  d='M62.2,288.9 L71.2,288.9 M615.0,288.9 L606.0,288.9  '/>	<g transform="translate(53.9,292.8)" stroke="none" fill="black" font-family="Arial" font-size="12.00"  text-anchor="end">
		<text><tspan font-family="Arial" > 2100</tspan></text>
	</g>
</g>
<g fill="none" color="black" stroke="currentColor" stroke-width="1.00" stroke-linecap="butt" stroke-linejoin="miter">
	<path stroke='black'  d='M62.2,245.7 L71.2,245.7 M615.0,245.7 L606.0,245.7  '/>	<g transform="translate(53.9,249.6)" stroke="none" fill="black" font-family="Arial" font-size="12.00"  text-anchor="end">
		<text><tspan font-family="Arial" > 2150</tspan></text>
	</g>
</g>
<g fill="none" color="black" stroke="currentColor" stroke-width="1.00" stroke-linecap="butt" stroke-linejoin="miter">
	<path stroke='black'  d='M62.2,202.6 L71.2,202.6 M615.0,202.6 L606.0,202.6  '/>	<g transform="translate(53.9,206.5)" stroke="none" fill="black" font-family="Arial" font-size="12.00"  text-anchor="end">
		<text><tspan font-family="Arial" > 2200</tspan></text>
	</g>
</g>
<g fill="none" color="black" stroke="currentColor" stroke-width="1.00" stroke-linecap="butt" stroke-linejoin="miter">
	<path stroke='black'  d='M62.2,159.4 L71.2,159.4 M615.0,159.4 L606.0,159.4  '/>	<g transform="translate(53.9,163.3)" stroke="none" fill="black" font-family="Arial" font-size="12.00"  text-anchor="end">
		<text><tspan font-family="Arial" > 2250</tspan></text>
	</g>
</g>
<g fill="none" color="black" stroke="currentColor" stroke-width="1.00" stroke-linecap="butt" stroke-linejoin="miter">
	<path stroke='black'  d='M62.2,116.2 L71.2,116.2 M615.0,116.2 L606.0,116.2  '/>	<g transform="translate(53.9,120.1)" stroke="none" fill="black" font-family="Arial" font-size="12.00"  text-anchor="end">
		<text><tspan font-family="Arial" > 2300</tspan></text>
	</g>
</g>
<g fill="none" color="black" stroke="currentColor" stroke-width="1.00" stroke-linecap="butt" stroke-linejoin="miter">
	<path stroke='black'  d='M62.2,73.1 L71.2,73.1 M615.0,73.1 L606.0,73.1  '/>	<g transform="translate(53.9,77.0)" stroke="none" fill="black" font-family="Arial" font-size="12.00"  text-anchor="end">
		<text><tspan font-family="Arial" > 2350</tspan></text>
	</g>
</g>
<g fill="none" color="black" stroke="currentColor" stroke-width="1.00" stroke-linecap="butt" stroke-linejoin="miter">
	<path stroke='black'  d='M62.2,29.9 L71.2,29.9 M615.0,29.9 L606.0,29.9  '/>	<g transform="translate(53.9,33.8)" stroke="none" fill="black" font-family="Arial" font-size="12.00"  text-anchor="end">
		<text><tspan font-family="Arial" > 2400</tspan></text>
	</g>
</g>
<g fill="none" color="black" stroke="currentColor" stroke-width="1.00" stroke-linecap="butt" stroke-linejoin="miter">
	<path stroke='black'  d='M62.2,428.0 L62.2,419.0 M62.2,18.1 L62.2,27.1  '/>	<g transform="translate(62.2,449.9)" stroke="none" fill="black" font-family="Arial" font-size="12.00"  text-anchor="middle">
		<text><tspan font-family="Arial" > 0</tspan></text>
	</g>
</g>
<g fill="none" color="black" stroke="currentColor" stroke-width="1.00" stroke-linecap="butt" stroke-linejoin="miter">
	<path stroke='black'  d='M118.0,428.0 L118.0,419.0 M118.0,18.1 L118.0,27.1  '/>	<g transform="translate(118.0,449.9)" stroke="none" fill="black" font-family="Arial" font-size="12.00"  text-anchor="middle">
		<text><tspan font-family="Arial" > 10</tspan></text>
	</g>
</g>
<g fill="none" color="black" stroke="currentColor" stroke-width="1.00" stroke-linecap="butt" stroke-linejoin="miter">
	<path stroke='black'  d='M173.9,428.0 L173.9,419.0 M173.9,18.1 L173.9,27.1  '/>	<g transform="translate(173.9,449.9)" stroke="none" fill="black" font-family="Arial" font-size="12.00"  text-anchor="middle">
		<text><tspan font-family="Arial" > 20</tspan></text>
	</g>
</g>
<g fill="none" color="black" stroke="currentColor" stroke-width="1.00" stroke-linecap="butt" stroke-linejoin="miter">
	<path stroke='black'  d='M229.7,428.0 L229.7,419.0 M229.7,18.1 L229.7,27.1  '/>	<g transform="translate(229.7,449.9)" stroke="none" fill="black" font-family="Arial" font-size="12.00"  text-anchor="middle">
		<text><tspan font-family="Arial" > 30</tspan></text>
	</g>
</g>
<g fill="none" color="black" stroke="currentColor" stroke-width="1.00" stroke-linecap="butt" stroke-linejoin="miter">
	<path stroke='black'  d='M285.6,428.0 L285.6,419.0 M285.6,18.1 L285.6,27.1  '/>	<g transform="translate(285.6,449.9)" stroke="none" fill="black" font-family="Arial" font-size="12.00"  text-anchor="middle">
		<text><tspan font-family="Arial" > 40</tspan></text>
	</g>
</g>
<g fill="none" color="black" stroke="currentColor" stroke-width="1.00" stroke-linecap="butt" stroke-linejoin="miter">
	<path stroke='black'  d='M341.4,428.0 L341.4,419.0 M341.4,18.1 L341.4,27.1  '/>	<g transform="translate(341.4,449.9)" stroke="none" fill="black" font-family="Arial" font-size="12.00"  text-anchor="middle">
		<text><tspan font-family="Arial" > 50</tspan></text>
	</g>
</g>
<g fill="none" color="black" stroke="currentColor" stroke-width="1.00" stroke-linecap="butt" stroke-linejoin="miter">
	<path stroke='black'  d='M397.2,428.0 L397.2,419.0 M397.2,18.1 L397.2,27.1  '/>	<g transform="translate(397.2,449.9)" stroke="none" fill="black" font-family="Arial" font-size="12.00"  text-anchor="middle">
		<text><tspan font-family="Arial" > 60</tspan></text>
	</g>
</g>
<g fill="none" color="black" stroke="currentColor" stroke-width="1.00" stroke-linecap="butt" stroke-linejoin="miter">
	<path stroke='black'  d='M453.1,428.0 L453.1,419.0 M453.1,18.1 L453.1,27.1  '/>	<g transform="translate(453.1,449.9)" stroke="none" fill="black" font-family="Arial" font-size="12.00"  text-anchor="middle">
		<text><tspan font-family="Arial" > 70</tspan></text>
	</g>
</g>
<g fill="none" color="black" stroke="currentColor" stroke-width="1.00" stroke-linecap="butt" stroke-linejoin="miter">
	<path stroke='black'  d='M508.9,428.0 L508.9,419.0 M508.9,18.1 L508.9,27.1  '/>	<g transform="translate(508.9,449.9)" stroke="none" fill="black" font-family="Arial" font-size="12.00"  text-anchor="middle">
		<text><tspan font-family="Arial" > 80</tspan></text>
	</g>
</g>
<g fill="none" color="black" stroke="currentColor" stroke-width="1.00" stroke-linecap="butt" stroke-linejoin="miter">
	<path stroke='black'  d='M564.7,428.0 L564.7,419.0 M564.7,18.1 L564.7,27.1  '/>	<g transform="translate(564.7,449.9)" stroke="none" fill="black" font-family="Arial" font-size="12.00"  text-anchor="middle">
		<text><tspan font-family="Arial" > 90</tspan></text>
	</g>
</g>
<g fill="none" color="black" stroke="currentColor" stroke-width="1.00" stroke-linecap="butt" stroke-linejoin="miter">
</g>
<g fill="none" color="black" stroke="currentColor" stroke-width="1.00" stroke-linecap="butt" stroke-linejoin="miter">
	<path stroke='black'  d='M62.2,18.1 L62.2,428.0 L615.0,428.0 L615.0,18.1 L62.2,18.1 Z  '/></g>
<g fill="none" color="black" stroke="currentColor" stroke-width="1.00" stroke-linecap="butt" stroke-linejoin="miter">
</g>
	<g id="gnuplot_plot_1" ><title>pages+cached</title>
<g fill="none" color="black" stroke="currentColor" stroke-width="1.00" stroke-linecap="butt" stroke-linejoin="miter">
	<g transform="translate(279.8,467.9)" stroke="none" fill="black" font-family="Arial" font-size="12.00"  text-anchor="end">
		<text><tspan font-family="Arial" >pages+cached</tspan></text>
	</g>
</g>
<g fill="none" color="black" stroke="currentColor" stroke-width="1.00" stroke-linecap="butt" stroke-linejoin="miter">
	<path stroke='rgb(148,   0, 211)'  d='M288.1,464.0 L330.3,464.0 M62.2,420.1 L67.8,401.6 L73.4,400.5 L79.0,399.9 L84.5,399.8 L90.1,399.7
		L95.7,399.6 L101.3,399.5 L106.9,399.4 L112.5,399.3 L118.0,399.3 L123.6,399.2 L129.2,399.0 L134.8,399.0
		L140.4,399.0 L146.0,398.9 L151.5,398.8 L157.1,398.8 L162.7,398.8 L168.3,398.7 L173.9,398.7 L179.5,398.5
		L185.0,398.5 L190.6,398.4 L196.2,398.3 L201.8,398.3 L207.4,398.3 L213.0,398.2 L218.5,398.2 L224.1,398.2
		L229.7,398.0 L235.3,398.0 L240.9,397.9 L246.5,397.9 L252.1,397.9 L257.6,397.7 L263.2,397.7 L268.8,397.7
		L274.4,397.7 L280.0,397.7 L285.6,397.7 L291.1,397.4 L296.7,397.4 L302.3,397.4 L307.9,397.4 L313.5,397.2
		L319.1,396.9 L324.6,396.9 L330.2,396.8 L335.8,396.8 L341.4,396.8 L347.0,396.8 L352.6,396.5 L358.1,396.5
		L363.7,396.5 L369.3,396.4 L374.9,396.3 L380.5,396.3 L386.1,396.2 L391.6,396.2 L397.2,396.1 L402.8,396.1
		L408.4,395.7 L414.0,395.7 L419.6,395.6 L425.1,395.2 L430.7,395.1 L436.3,395.1 L441.9,394.6 L447.5,394.6
		L453.1,393.9 L458.7,389.5 L464.2,268.3 L469.8,265.9 L475.4,264.0 L481.0,263.8 L486.6,262.6 L492.2,201.7
		L497.7,201.4 L503.3,201.2 L508.9,200.6 L514.5,200.4 L520.1,200.2 L525.7,200.1 L531.2,199.3 L536.8,198.6
		L542.4,198.6 L548.0,198.1 L553.6,197.8 L559.2,197.4 L564.7,197.4 L570.3,197.3 L575.9,197.3 L581.5,197.0
		L587.1,196.6 L592.7,196.4 L598.2,196.1 L603.8,196.0 L609.4,194.1 L615.0,26.0  '/></g>
	</g>
	<g id="gnuplot_plot_2" ><title>pages+cached+nointeractive</title>
<g fill="none" color="black" stroke="currentColor" stroke-width="1.00" stroke-linecap="butt" stroke-linejoin="miter">
	<g transform="translate(279.8,485.9)" stroke="none" fill="black" font-family="Arial" font-size="12.00"  text-anchor="end">
		<text><tspan font-family="Arial" >pages+cached+nointeractive</tspan></text>
	</g>
</g>
<g fill="none" color="black" stroke="currentColor" stroke-width="1.00" stroke-linecap="butt" stroke-linejoin="miter">
	<path stroke='rgb(  0, 158, 115)'  d='M288.1,482.0 L330.3,482.0 M62.2,403.8 L67.8,402.0 L73.4,401.0 L79.0,400.8 L84.5,400.3 L90.1,399.9
		L95.7,399.6 L101.3,399.5 L106.9,399.4 L112.5,399.4 L118.0,399.3 L123.6,399.3 L129.2,399.1 L134.8,398.9
		L140.4,398.9 L146.0,398.7 L151.5,398.7 L157.1,398.6 L162.7,398.6 L168.3,398.5 L173.9,398.4 L179.5,398.3
		L185.0,398.3 L190.6,398.2 L196.2,398.2 L201.8,398.1 L207.4,398.1 L213.0,398.1 L218.5,397.9 L224.1,397.9
		L229.7,397.4 L235.3,397.3 L240.9,397.3 L246.5,397.1 L252.1,396.9 L257.6,396.8 L263.2,394.9 L268.8,267.4
		L274.4,267.0 L280.0,266.8 L285.6,266.3 L291.1,265.7 L296.7,265.6 L302.3,265.5 L307.9,265.4 L313.5,265.3
		L319.1,265.3 L324.6,265.1 L330.2,265.0 L335.8,264.1 L341.4,262.2 L347.0,204.8 L352.6,203.0 L358.1,203.0
		L363.7,203.0 L369.3,202.8 L374.9,202.4 L380.5,201.9 L386.1,201.9 L391.6,201.9 L397.2,201.7 L402.8,201.7
		L408.4,201.4 L414.0,201.4 L419.6,201.4 L425.1,201.3 L430.7,201.2 L436.3,201.1 L441.9,201.1 L447.5,201.1
		L453.1,200.9 L458.7,200.5 L464.2,200.5 L469.8,200.5 L475.4,200.3 L481.0,200.2 L486.6,200.1 L492.2,200.1
		L497.7,200.0 L503.3,200.0 L508.9,199.9 L514.5,199.9 L520.1,199.8 L525.7,199.7 L531.2,199.6 L536.8,199.6
		L542.4,199.6 L548.0,199.5 L553.6,199.5 L559.2,199.3 L564.7,199.0 L570.3,198.9 L575.9,198.8 L581.5,198.7
		L587.1,198.7 L592.7,198.6 L598.2,198.1 L603.8,198.0 L609.4,197.8 L615.0,197.7  '/></g>
	</g>
	<g id="gnuplot_plot_3" ><title>score p10=3572</title>
<g fill="none" color="black" stroke="currentColor" stroke-width="1.00" stroke-linecap="butt" stroke-linejoin="miter">
	<g transform="translate(554.4,467.9)" stroke="none" fill="black" font-family="Arial" font-size="12.00"  text-anchor="end">
		<text><tspan font-family="Arial" >score p10=3572</tspan></text>
	</g>
</g>
<g fill="none" color="black" stroke="currentColor" stroke-width="1.00" stroke-linecap="butt" stroke-linejoin="miter">
	<path stroke='rgb( 86, 180, 233)'  d='M562.7,464.0 L604.9,464.0  '/></g>
	</g>
	<g id="gnuplot_plot_4" ><title>score median=6500</title>
<g fill="none" color="black" stroke="currentColor" stroke-width="1.00" stroke-linecap="butt" stroke-linejoin="miter">
	<g transform="translate(554.4,485.9)" stroke="none" fill="black" font-family="Arial" font-size="12.00"  text-anchor="end">
		<text><tspan font-family="Arial" >score median=6500</tspan></text>
	</g>
</g>
<g fill="none" color="black" stroke="currentColor" stroke-width="1.00" stroke-linecap="butt" stroke-linejoin="miter">
	<path stroke='rgb(230, 159,   0)'  d='M562.7,482.0 L604.9,482.0  '/></g>
	</g>
<g fill="none" color="#FFFFFF" stroke="rgb(230, 159,   0)" stroke-width="2.00" stroke-linecap="butt" stroke-linejoin="miter">
</g>
<g fill="none" color="black" stroke="currentColor" stroke-width="2.00" stroke-linecap="butt" stroke-linejoin="miter">
</g>
<g fill="none" color="black" stroke="black" stroke-width="1.00" stroke-linecap="butt" stroke-linejoin="miter">
</g>
<g fill="none" color="black" stroke="currentColor" stroke-width="1.00" stroke-linecap="butt" stroke-linejoin="miter">
	<path stroke='black'  d='M62.2,18.1 L62.2,428.0 L615.0,428.0 L615.0,18.1 L62.2,18.1 Z  '/></g>
<g fill="none" color="black" stroke="currentColor" stroke-width="1.00" stroke-linecap="butt" stroke-linejoin="miter">
</g>
</g>
</svg>
